packages/kaspersky-hexa-ui-icons/src/iconsSVGs/24/Upload1.svg

<svg width="24" height="24" viewBox="0 0 24 24" fill="none" xmlns="http://www.w3.org/2000/svg">
<path d="M12.7071 3.14299C12.3166 2.75247 11.6834 2.75247 11.2929 3.14299L7.29289 7.14299C6.90237 7.53351 6.90237 8.16668 7.29289 8.5572C7.68342 8.94773 8.31658 8.94773 8.70711 8.5572L11 6.26431V16.8501C11 17.4024 11.4477 17.8501 12 17.8501C12.5523 17.8501 13 17.4024 13 16.8501V6.26431L15.2929 8.5572C15.6834 8.94773 16.3166 8.94773 16.7071 8.5572C17.0976 8.16668 17.0976 7.53351 16.7071 7.14299L12.7071 3.14299Z" fill="black"/>
<path d="M4 13.8501C4 13.2978 4.44772 12.8501 5 12.8501H7.5C8.05228 12.8501 8.5 12.4024 8.5 11.8501C8.5 11.2978 8.05228 10.8501 7.5 10.8501H5C3.34315 10.8501 2 12.1932 2 13.8501V19.8501C2 21.507 3.34315 22.8501 5 22.8501H19C20.6569 22.8501 22 21.507 22 19.8501V13.8501C22 12.1932 20.6569 10.8501 19 10.8501H16.5C15.9477 10.8501 15.5 11.2978 15.5 11.8501C15.5 12.4024 15.9477 12.8501 16.5 12.8501H19C19.5523 12.8501 20 13.2978 20 13.8501V19.8501C20 20.4024 19.5523 20.8501 19 20.8501H5C4.44772 20.8501 4 20.4024 4 19.8501V13.8501Z" fill="black"/>
</svg>

<svg xmlns="http://www.w3.org/2000/svg" width="24" height="24" fill="none" viewBox="0 0 24 24"><path fill="#000" d="M12.7071 3.143c-.3905-.3905-1.0237-.3905-1.4142 0l-4 4c-.3905.3905-.3905 1.0237 0 1.4142s1.0237.3905 1.4142 0L11 6.2643v10.5858c0 .5523.4477 1 1 1s1-.4477 1-1V6.2643l2.2929 2.2929c.3905.3905 1.0237.3905 1.4142 0s.3905-1.0237 0-1.4142z"/><path fill="#000" d="M4 13.8501c0-.5523.4477-1 1-1h2.5c.5523 0 1-.4477 1-1s-.4477-1-1-1H5c-1.6568 0-3 1.3431-3 3v6c0 1.6569 1.3432 3 3 3h14c1.6569 0 3-1.3431 3-3v-6c0-1.6569-1.3431-3-3-3h-2.5c-.5523 0-1 .4477-1 1s.4477 1 1 1H19c.5523 0 1 .4477 1 1v6c0 .5523-.4477 1-1 1H5c-.5523 0-1-.4477-1-1z"/></svg>
